X: 1
T: Finnskogspols
S: http://www.youtube.com/watch?v=h3QLMXhs1Ac dated 2008-11-5
M: 7/8
L: 1/8
K: D
|: "A7"A3 B2 c2 | "D"d3 e2 f2 | "A7"g2f eg fe |1,3 "D"f2e df ed :|3,4 "D"d2- d2- d2 :|
|: "Em"g3 f2 ed | "A7"c2d cB A2 | "Em"g3 f2 ed | "A7"c2d cB A2 |
| "A7"A3 B2 c2 | "D"d3 e2 f2 | "Em"g2f "A7"eg fe | "D"d2- d2- d2 :|
